svg/motor-cycle.svg

<svg xmlns="http://www.w3.org/2000/svg" viewBox="0 0 56 64" enable-background="new 0 0 56 64"><style type="text/css">.st0{fill:#343434;}</style><title>motor-cycle</title><desc>Created with Sketch.</desc><path class="st0" d="M33.4 13.9c1.6-1.5 2.6-3.6 2.6-5.9 0-4.4-3.6-8-8-8s-8 3.6-8 8c0 2.3 1 4.4 2.6 5.9-3.9 1.7-6.6 5.6-6.6 10.1v18c0 3.9 2 7.3 5 9.2v-6.2c0-3.9 3.1-7 7-7s7 3.1 7 7v6.2c3-2 5-5.4 5-9.2v-18c0-4.5-2.7-8.4-6.6-10.1zm-5.4-10.9c2.8 0 5 2.2 5 5s-2.2 5-5 5-5-2.2-5-5 2.2-5 5-5zm9 37.6c-1.6-3.3-5-5.6-9-5.6s-7.4 2.3-9 5.6v-16.6c0-4.4 3.6-8 8-8h2c4.4 0 8 3.6 8 8v16.6zM28 40c-2.8 0-5 2.2-5 5v14c0 2.8 2.2 5 5 5s5-2.2 5-5v-14c0-2.8-2.2-5-5-5zm2 19c0 1.1-.9 2-2 2s-2-.9-2-2v-14c0-1.1.9-2 2-2s2 .9 2 2v14zM18.2 10c-.1-.6-.2-1.3-.2-2v-1h-6.5c-.5-.6-1.2-1-2-1h-7c-1.4 0-2.5 1.1-2.5 2.5s1.1 2.5 2.5 2.5h7c.8 0 1.5-.4 2-1h6.7zm-8.7-1h-7c-.3 0-.5-.2-.5-.5s.2-.5.5-.5h7c.3 0 .5.2.5.5s-.2.5-.5.5zM53.5 6h-7c-.8 0-1.5.4-2 1h-6.5v1c0 .7-.1 1.4-.2 2h6.7c.5.6 1.2 1 2 1h7c1.4 0 2.5-1.1 2.5-2.5s-1.1-2.5-2.5-2.5zm0 3h-7c-.3 0-.5-.2-.5-.5s.2-.5.5-.5h7c.3 0 .5.2.5.5s-.2.5-.5.5z"/></svg>

<?xml version="1.0" encoding="utf-8"?>
<!-- Generator: Adobe Illustrator 21.0.0, SVG Export Plug-In . SVG Version: 6.00 Build 0)  -->
<svg version="1.1" id="Layer_1" xmlns="http://www.w3.org/2000/svg" xmlns:xlink="http://www.w3.org/1999/xlink" x="0px" y="0px"
	 viewBox="0 0 56 64" style="enable-background:new 0 0 56 64;" xml:space="preserve">
<style type="text/css">
	.st0{fill:#343434;}
</style>
<title>motor-cycle</title>
<desc>Created with Sketch.</desc>
<g>
	<path class="st0" d="M33.4,13.9C35,12.4,36,10.3,36,8c0-4.4-3.6-8-8-8s-8,3.6-8,8c0,2.3,1,4.4,2.6,5.9C18.7,15.6,16,19.5,16,24v18
		c0,3.9,2,7.3,5,9.2V45c0-3.9,3.1-7,7-7c3.9,0,7,3.1,7,7v6.2c3-2,5-5.4,5-9.2V24C40,19.5,37.3,15.6,33.4,13.9z M28,3
		c2.8,0,5,2.2,5,5s-2.2,5-5,5s-5-2.2-5-5S25.2,3,28,3z M37,40.6c-1.6-3.3-5-5.6-9-5.6c-4,0-7.4,2.3-9,5.6V24c0-4.4,3.6-8,8-8h2
		c4.4,0,8,3.6,8,8V40.6z"/>
	<path class="st0" d="M28,40c-2.8,0-5,2.2-5,5v14c0,2.8,2.2,5,5,5c2.8,0,5-2.2,5-5V45C33,42.2,30.8,40,28,40z M30,59
		c0,1.1-0.9,2-2,2c-1.1,0-2-0.9-2-2V45c0-1.1,0.9-2,2-2c1.1,0,2,0.9,2,2V59z"/>
	<path class="st0" d="M18.2,10C18.1,9.4,18,8.7,18,8c0-0.3,0-0.7,0-1h-6.5c0,0,0,0,0,0c-0.5-0.6-1.2-1-2-1h-7C1.1,6,0,7.1,0,8.5
		C0,9.9,1.1,11,2.5,11h7c0.8,0,1.5-0.4,2-1c0,0,0,0,0,0H18.2z M9.5,9h-7C2.2,9,2,8.8,2,8.5C2,8.2,2.2,8,2.5,8h7C9.8,8,10,8.2,10,8.5
		C10,8.8,9.8,9,9.5,9z"/>
	<path class="st0" d="M53.5,6h-7c-0.8,0-1.5,0.4-2,1c0,0,0,0,0,0H38c0,0.3,0,0.7,0,1c0,0.7-0.1,1.4-0.2,2h6.7c0,0,0,0,0,0
		c0.5,0.6,1.2,1,2,1h7c1.4,0,2.5-1.1,2.5-2.5C56,7.1,54.9,6,53.5,6z M53.5,9h-7C46.2,9,46,8.8,46,8.5C46,8.2,46.2,8,46.5,8h7
		C53.8,8,54,8.2,54,8.5C54,8.8,53.8,9,53.5,9z"/>
</g>
</svg>
